src/assets/icons/ico-stroke-1step.svg

<svg width="24" height="22" viewBox="0 0 24 22" fill="none" xmlns="http://www.w3.org/2000/svg">
<path d="M18.2619 20.9853C16.5361 19.8759 17.7688 17.7802 19.0016 15.8077C19.4947 15.0681 20.2344 13.712 20.3576 13.0957C19.5847 13.3165 17.9218 14.8229 16.6974 15.9321C16.5548 16.0613 16.4181 16.1851 16.2895 16.3008C16.1995 16.3796 16.1095 16.4585 16.0195 16.5374C13.1516 19.0503 10.3085 21.5417 8.27657 19.6293C6.33918 17.813 8.6835 14.6884 11.5712 10.8396C11.6234 10.77 11.6758 10.7002 11.7283 10.6301C11.9079 10.3757 12.1183 10.0832 12.348 9.76397C14.0102 7.45345 16.6779 3.7452 15.9197 2.98702H15.7964C13.3309 2.98702 6.30415 9.64393 2.11276 14.3284C1.61966 14.8215 0.879999 14.8215 0.386895 14.4517C-0.10621 13.9586 -0.10621 13.2189 0.263619 12.7258C0.339389 12.645 0.427578 12.5505 0.527346 12.4436C2.86239 9.94197 11.5403 0.644775 15.7964 0.644775C16.9059 0.644775 17.399 1.13788 17.7688 1.50771C19.9115 3.76945 17.1115 7.64047 14.0305 11.8998C13.9209 12.0514 13.8109 12.2035 13.7007 12.356C13.6641 12.406 13.6269 12.4567 13.5892 12.5081C12.2327 14.3572 10.2423 17.0705 10.0024 18.15C10.7889 18.15 12.804 16.307 14.1815 15.0471C14.3155 14.9246 14.4435 14.8075 14.5637 14.6983C17.1525 12.356 19.4947 10.2603 21.3438 11C21.9602 11.2465 22.4533 11.7396 22.5766 12.356C23.0697 13.8353 22.0835 15.5612 20.974 17.4103C20.6893 17.79 20.4046 18.3888 20.1761 18.8693C20.1078 19.0129 20.0445 19.146 19.9878 19.2595C20.4809 19.0129 21.2206 18.3965 21.8369 17.7802C22.2068 17.2871 23.0697 17.1638 23.5628 17.6569C24.0559 18.0267 24.1792 18.8896 23.6861 19.3828C23.6468 19.3042 23.4324 19.4759 23.0945 19.7464C22.372 20.3249 21.0853 21.3552 19.7413 21.3552C19.2481 21.3552 18.755 21.2319 18.2619 20.9853Z" fill="currentColor"/>
</svg>

<svg width="24" height="22" fill="none" xmlns="http://www.w3.org/2000/svg"><path d="M18.2619 20.9853c-1.7258-1.1094-.4931-3.2051.7397-5.1776.4931-.7396 1.2328-2.0957 1.356-2.712-.7729.2208-2.4358 1.7272-3.6602 2.8364-.1426.1292-.2793.253-.4079.3687l-.27.2366c-2.8679 2.5129-5.711 5.0043-7.743 3.0919-1.9373-1.8163.407-4.9409 3.2947-8.7897l.1571-.2095c.1796-.2544.39-.5469.6197-.8661 1.6622-2.3105 4.3299-6.0188 3.5717-6.777h-.1233c-2.4655 0-9.4923 6.657-13.6836 11.3414-.4931.4931-1.2328.4931-1.726.1233-.493-.4931-.493-1.2328-.1232-1.7259.0758-.0808.164-.1753.2637-.2822C2.8623 9.942 11.5403.6448 15.7964.6448c1.1095 0 1.6026.493 1.9724.863 2.1427 2.2616-.6573 6.1327-3.7383 10.392l-.3298.4562-.1115.1521c-1.3565 1.8491-3.3469 4.5624-3.5868 5.6419.7865 0 2.8016-1.843 4.1791-3.1029.134-.1225.262-.2396.3822-.3488 2.5888-2.3423 4.931-4.438 6.7801-3.6983.6164.2465 1.1095.7396 1.2328 1.356.4931 1.4793-.4931 3.2052-1.6026 5.0543-.2847.3797-.5694.9785-.7979 1.459-.0683.1436-.1316.2767-.1883.3902.4931-.2466 1.2328-.863 1.8491-1.4793.3699-.4931 1.2328-.6164 1.7259-.1233.4931.3698.6164 1.2327.1233 1.7259-.0393-.0786-.2537.0931-.5916.3636-.7225.5785-2.0092 1.6088-3.3532 1.6088-.4932 0-.9863-.1233-1.4794-.3699Z" fill="currentColor"/></svg>
